material/.icons/material/chart-line.svg

<svg xmlns="http://www.w3.org/2000/svg" viewBox="0 0 24 24"><path d="M16 11.78l4.24-7.33 1.73 1-5.23 9.05-6.51-3.75L5.46 19H22v2H2V3h2v14.54L9.5 8l6.5 3.78z"/></svg>

<?xml version="1.0" encoding="UTF-8"?><!DOCTYPE svg PUBLIC "-//W3C//DTD SVG 1.1//EN" "http://www.w3.org/Graphics/SVG/1.1/DTD/svg11.dtd"><svg xmlns="http://www.w3.org/2000/svg" xmlns:xlink="http://www.w3.org/1999/xlink" version="1.1" id="mdi-chart-line" width="24" height="24" viewBox="0 0 24 24"><path d="M16,11.78L20.24,4.45L21.97,5.45L16.74,14.5L10.23,10.75L5.46,19H22V21H2V3H4V17.54L9.5,8L16,11.78Z" /></svg>
